source/img/logo/logo.svg

<svg width="154" height="39" viewBox="0 0 154 39" fill="none" xmlns="http://www.w3.org/2000/svg">
<path d="M22.75 6.14V14.06H10.24V18.47H19.24V25.985H10.24V38H0.25V6.14H22.75ZM82.0006 25.31C82.0006 22.64 82.4506 20.33 83.3506 18.38C84.2806 16.4 85.5406 14.9 87.1306 13.88C88.7206 12.83 90.5056 12.305 92.4856 12.305C94.1356 12.305 95.5456 12.65 96.7156 13.34C97.9156 14 98.8306 14.915 99.4606 16.085V4.7H109.451V38H99.4606V34.535C98.8306 35.705 97.9156 36.635 96.7156 37.325C95.5456 37.985 94.1356 38.315 92.4856 38.315C90.5056 38.315 88.7206 37.805 87.1306 36.785C85.5406 35.735 84.2806 34.235 83.3506 32.285C82.4506 30.305 82.0006 27.98 82.0006 25.31ZM99.5056 25.31C99.5056 23.96 99.1606 22.91 98.4706 22.16C97.7806 21.41 96.8956 21.035 95.8156 21.035C94.7356 21.035 93.8506 21.41 93.1606 22.16C92.4706 22.91 92.1256 23.96 92.1256 25.31C92.1256 26.66 92.4706 27.71 93.1606 28.46C93.8506 29.21 94.7356 29.585 95.8156 29.585C96.8956 29.585 97.7806 29.21 98.4706 28.46C99.1606 27.71 99.5056 26.66 99.5056 25.31ZM118.977 10.595C117.237 10.595 115.842 10.13 114.792 9.2C113.742 8.27 113.217 7.1 113.217 5.69C113.217 4.25 113.742 3.065 114.792 2.135C115.842 1.175 117.237 0.694997 118.977 0.694997C120.687 0.694997 122.067 1.175 123.117 2.135C124.167 3.065 124.692 4.25 124.692 5.69C124.692 7.1 124.167 8.27 123.117 9.2C122.067 10.13 120.687 10.595 118.977 10.595ZM123.927 12.62V38H113.937V12.62H123.927ZM153.008 25.085C153.008 25.775 152.963 26.435 152.873 27.065H136.808C136.958 29.255 137.873 30.35 139.553 30.35C140.633 30.35 141.413 29.855 141.893 28.865H152.468C152.108 30.665 151.343 32.285 150.173 33.725C149.033 35.135 147.578 36.26 145.808 37.1C144.068 37.91 142.148 38.315 140.048 38.315C137.528 38.315 135.278 37.79 133.298 36.74C131.348 35.69 129.818 34.19 128.708 32.24C127.628 30.26 127.088 27.95 127.088 25.31C127.088 22.67 127.628 20.375 128.708 18.425C129.818 16.445 131.348 14.93 133.298 13.88C135.278 12.83 137.528 12.305 140.048 12.305C142.568 12.305 144.803 12.83 146.753 13.88C148.733 14.9 150.263 16.37 151.343 18.29C152.453 20.21 153.008 22.475 153.008 25.085ZM142.883 22.7C142.883 21.86 142.613 21.23 142.073 20.81C141.533 20.36 140.858 20.135 140.048 20.135C138.278 20.135 137.243 20.99 136.943 22.7H142.883Z" fill="white"/>
<path d="M38.1938 38.315C35.6438 38.315 33.3488 37.79 31.3088 36.74C29.2688 35.69 27.6638 34.19 26.4938 32.24C25.3538 30.26 24.7838 27.95 24.7838 25.31C24.7838 22.67 25.3538 20.375 26.4938 18.425C27.6638 16.445 29.2688 14.93 31.3088 13.88C33.3488 12.83 35.6438 12.305 38.1938 12.305C40.7438 12.305 43.0388 12.83 45.0788 13.88C47.1188 14.93 48.7088 16.445 49.8488 18.425C51.0188 20.375 51.6038 22.67 51.6038 25.31C51.6038 27.95 51.0188 30.26 49.8488 32.24C48.7088 34.19 47.1188 35.69 45.0788 36.74C43.0388 37.79 40.7438 38.315 38.1938 38.315ZM38.1938 29.675C39.1238 29.675 39.9038 29.315 40.5338 28.595C41.1638 27.845 41.4788 26.75 41.4788 25.31C41.4788 23.87 41.1638 22.79 40.5338 22.07C39.9038 21.32 39.1238 20.945 38.1938 20.945C37.2638 20.945 36.4838 21.32 35.8538 22.07C35.2238 22.79 34.9088 23.87 34.9088 25.31C34.9088 26.75 35.2088 27.845 35.8088 28.595C36.4388 29.315 37.2338 29.675 38.1938 29.675ZM66.8022 38.315C64.2522 38.315 61.9572 37.79 59.9172 36.74C57.8772 35.69 56.2722 34.19 55.1022 32.24C53.9622 30.26 53.3922 27.95 53.3922 25.31C53.3922 22.67 53.9622 20.375 55.1022 18.425C56.2722 16.445 57.8772 14.93 59.9172 13.88C61.9572 12.83 64.2522 12.305 66.8022 12.305C69.3522 12.305 71.6472 12.83 73.6872 13.88C75.7272 14.93 77.3172 16.445 78.4572 18.425C79.6272 20.375 80.2122 22.67 80.2122 25.31C80.2122 27.95 79.6272 30.26 78.4572 32.24C77.3172 34.19 75.7272 35.69 73.6872 36.74C71.6472 37.79 69.3522 38.315 66.8022 38.315ZM66.8022 29.675C67.7322 29.675 68.5122 29.315 69.1422 28.595C69.7722 27.845 70.0872 26.75 70.0872 25.31C70.0872 23.87 69.7722 22.79 69.1422 22.07C68.5122 21.32 67.7322 20.945 66.8022 20.945C65.8722 20.945 65.0922 21.32 64.4622 22.07C63.8322 22.79 63.5172 23.87 63.5172 25.31C63.5172 26.75 63.8172 27.845 64.4172 28.595C65.0472 29.315 65.8422 29.675 66.8022 29.675Z" fill="#FE724C"/>
</svg>

<svg xmlns="http://www.w3.org/2000/svg" fill="none" viewBox="0 0 154 39">
  <path fill="#fff" d="M22.75 6.14v7.92H10.24v4.41h9v7.515h-9V38H.25V6.14h22.5ZM82 25.31c0-2.67.45-4.98 1.35-6.93.93-1.98 2.19-3.48 3.78-4.5 1.59-1.05 3.376-1.575 5.356-1.575 1.65 0 3.06.345 4.23 1.035 1.2.66 2.115 1.575 2.745 2.745V4.7h9.99V38h-9.99v-3.465c-.63 1.17-1.545 2.1-2.745 2.79-1.17.66-2.58.99-4.23.99-1.98 0-3.765-.51-5.355-1.53-1.59-1.05-2.85-2.55-3.78-4.5-.9-1.98-1.35-4.305-1.35-6.975Zm17.506 0c0-1.35-.345-2.4-1.035-3.15s-1.575-1.125-2.655-1.125c-1.08 0-1.965.375-2.655 1.125-.69.75-1.035 1.8-1.035 3.15 0 1.35.345 2.4 1.035 3.15s1.575 1.125 2.655 1.125c1.08 0 1.965-.375 2.655-1.125.69-.75 1.035-1.8 1.035-3.15Zm19.471-14.715c-1.74 0-3.135-.465-4.185-1.395-1.05-.93-1.575-2.1-1.575-3.51 0-1.44.525-2.625 1.575-3.555 1.05-.96 2.445-1.44 4.185-1.44 1.71 0 3.09.48 4.14 1.44 1.05.93 1.575 2.115 1.575 3.555 0 1.41-.525 2.58-1.575 3.51-1.05.93-2.43 1.395-4.14 1.395Zm4.95 2.025V38h-9.99V12.62h9.99Zm29.081 12.465c0 .69-.045 1.35-.135 1.98h-16.065c.15 2.19 1.065 3.285 2.745 3.285 1.08 0 1.86-.495 2.34-1.485h10.575c-.36 1.8-1.125 3.42-2.295 4.86-1.14 1.41-2.595 2.535-4.365 3.375-1.74.81-3.66 1.215-5.76 1.215-2.52 0-4.77-.525-6.75-1.575-1.95-1.05-3.48-2.55-4.59-4.5-1.08-1.98-1.62-4.29-1.62-6.93 0-2.64.54-4.935 1.62-6.885 1.11-1.98 2.64-3.495 4.59-4.545 1.98-1.05 4.23-1.575 6.75-1.575 2.52 0 4.755.525 6.705 1.575 1.98 1.02 3.51 2.49 4.59 4.41 1.11 1.92 1.665 4.185 1.665 6.795ZM142.883 22.7c0-.84-.27-1.47-.81-1.89-.54-.45-1.215-.675-2.025-.675-1.77 0-2.805.855-3.105 2.565h5.94Z"/>
  <path fill="#FE724C" d="M38.194 38.315c-2.55 0-4.845-.525-6.885-1.575-2.04-1.05-3.645-2.55-4.815-4.5-1.14-1.98-1.71-4.29-1.71-6.93 0-2.64.57-4.935 1.71-6.885a11.714 11.714 0 0 1 4.815-4.545c2.04-1.05 4.335-1.575 6.885-1.575s4.845.525 6.885 1.575a11.424 11.424 0 0 1 4.77 4.545c1.17 1.95 1.755 4.245 1.755 6.885 0 2.64-.585 4.95-1.755 6.93-1.14 1.95-2.73 3.45-4.77 4.5-2.04 1.05-4.335 1.575-6.885 1.575Zm0-8.64c.93 0 1.71-.36 2.34-1.08.63-.75.945-1.845.945-3.285 0-1.44-.315-2.52-.945-3.24-.63-.75-1.41-1.125-2.34-1.125-.93 0-1.71.375-2.34 1.125-.63.72-.945 1.8-.945 3.24 0 1.44.3 2.535.9 3.285.63.72 1.425 1.08 2.385 1.08Zm28.608 8.64c-2.55 0-4.845-.525-6.885-1.575-2.04-1.05-3.645-2.55-4.815-4.5-1.14-1.98-1.71-4.29-1.71-6.93 0-2.64.57-4.935 1.71-6.885a11.714 11.714 0 0 1 4.815-4.545c2.04-1.05 4.335-1.575 6.885-1.575s4.845.525 6.885 1.575a11.424 11.424 0 0 1 4.77 4.545c1.17 1.95 1.755 4.245 1.755 6.885 0 2.64-.585 4.95-1.755 6.93-1.14 1.95-2.73 3.45-4.77 4.5-2.04 1.05-4.335 1.575-6.885 1.575Zm0-8.64c.93 0 1.71-.36 2.34-1.08.63-.75.945-1.845.945-3.285 0-1.44-.315-2.52-.945-3.24-.63-.75-1.41-1.125-2.34-1.125-.93 0-1.71.375-2.34 1.125-.63.72-.945 1.8-.945 3.24 0 1.44.3 2.535.9 3.285.63.72 1.425 1.08 2.385 1.08Z"/>
</svg>
